X:2875
T:Charlie Is My Darling.Secundo. JMT.048
M:4/4
L:1/8
Q:130
S:J.Moore,Tyneside,1841.(35)
R:Air
O:England
A:Northumbria
H:184
Z:vmp.Chris Partington
K:Bb
(G>^FG>A B>GG2|c>-GG2B>-GG2|G>^FG>A B>GG>F|!
G2c>-BB2z2|d2d>c B>-A G>-B|d2d>-c B>-A GB|!
d>ed>A B>^FG2|^F2G2D2Fz|G>FG>A B>-GG2|!
c>GG2B>GG2|G>FG>A B>GG>F|G2{d}c>BB2|]


